X:811
T:Xiraldilla (CT 233)
R:Xiraldilla
C:Tradicional
S:Msica Tradicional Asturiana, (C) Tello & Tito. Asturies, 2001.
S:http://pagina.de/MusTradAst <telloytito@asturies.org>
N:Xiraldilla, transcrita en Uviu.
A:Asturies
O:Uviu
Z:Cancioneru de Torner 233
M:2/4
L:1/8
Q:1/4=176
K:G
|: d2 d2|B2 B2|c2 c2|d2 B2|d2 d2|B2 B2|c2 A2|B2 B2 :|
|: B2 BB|G2 GG|A2 AA|B2 G2|B2 BB|G2 GG|[1 A2 F2|G2 z2 :|[2 A2 FF|G2 z2||
